build/assets/img/svg/icon-analytics.svg

<svg width="48" height="48" viewBox="0 0 48 48" fill="none" xmlns="http://www.w3.org/2000/svg">
<g clip-path="url(#clip0)">
<path d="M28.8641 30.5852L27.4471 29.1683L28.8812 27.4504L30.0148 28.584L31.1546 28.5777L38.238 35.9474L35.3729 38.8126L28.2895 31.4429L28.8641 30.5852Z" fill="#C43B55"/>
<path fill-rule="evenodd" clip-rule="evenodd" d="M20.7213 12.9353C16.4275 12.9771 12.9224 16.5026 12.8924 20.8099C12.8624 25.1171 16.3189 28.5749 20.6127 28.5331C24.9065 28.4914 28.4116 24.9658 28.4416 20.6585C28.4522 19.1415 28.0307 17.7313 27.293 16.5415C27.1454 16.3035 27.2201 15.9873 27.4599 15.8352C27.6997 15.6832 28.0137 15.7529 28.1613 15.9909C28.9964 17.3375 29.4732 18.9343 29.4612 20.6486C29.4273 25.5207 25.4625 29.5087 20.6055 29.5559C15.7486 29.6032 11.8388 25.6919 11.8728 20.8198C11.9067 15.9477 15.8715 11.9597 20.7284 11.9125C22.548 11.8948 24.236 12.4332 25.6327 13.3698C25.865 13.5256 25.9243 13.8429 25.7651 14.0785C25.6059 14.3141 25.2886 14.3789 25.0563 14.2231C23.8221 13.3954 22.3313 12.9196 20.7213 12.9353Z" fill="black"/>
<path fill-rule="evenodd" clip-rule="evenodd" d="M20.5976 30.5793C26.0176 30.5266 30.4421 26.0764 30.4799 20.6394C30.5177 15.2024 26.1546 10.8375 20.7345 10.8902C15.3145 10.9429 10.89 15.3932 10.8522 20.8302C10.8389 22.7449 11.3709 24.5253 12.3022 26.0272C12.4498 26.2652 12.3751 26.5814 12.1353 26.7335C11.8955 26.8855 11.5815 26.8158 11.4339 26.5778C10.4053 24.919 9.81786 22.9521 9.83255 20.8401C9.87429 14.8382 14.7584 9.92557 20.7416 9.86742C26.7248 9.80926 31.5413 14.6276 31.4995 20.6295C31.4578 26.6313 26.5736 31.544 20.5905 31.6021C18.3488 31.6239 16.2695 30.9607 14.549 29.8068C14.3167 29.651 14.2575 29.3338 14.4166 29.0981C14.5758 28.8625 14.8931 28.7978 15.1254 28.9535C16.6835 29.9985 18.5656 30.5991 20.5976 30.5793Z" fill="black"/>
<path fill-rule="evenodd" clip-rule="evenodd" d="M28.8103 26.809L30.3246 28.3281L30.7037 28.2705C31.2605 28.1861 31.8201 28.3689 32.214 28.7641L38.1124 34.681C38.5062 35.0761 38.6885 35.6372 38.6044 36.1956L38.5726 36.4068C38.5149 36.7906 38.3348 37.1474 38.0595 37.4236L37.0297 38.4567C36.7544 38.7328 36.3987 38.9134 36.0161 38.9714L35.8055 39.0033C35.2489 39.0876 34.6895 38.9047 34.2957 38.5097L28.3972 32.5926C28.0034 32.1976 27.8211 31.6364 27.9052 31.078L27.9624 30.6979L26.4479 29.1794L28.8103 26.809ZM28.9833 30.7496L28.9133 31.2142C28.8773 31.4536 28.9554 31.694 29.1242 31.8634L35.0227 37.7804C35.1915 37.9497 35.4312 38.0281 35.6698 37.992L35.8803 37.9601C36.0443 37.9352 36.1967 37.8578 36.3147 37.7395L37.3446 36.7063C37.4625 36.588 37.5397 36.4351 37.5645 36.2706L37.5963 36.0594C37.6323 35.8201 37.5542 35.5796 37.3854 35.4103L31.487 29.4934C31.3182 29.324 31.0784 29.2456 30.8398 29.2818L30.3763 29.3522L28.9833 30.7496ZM29.419 28.8781L28.7984 28.2556L27.8899 29.1671L28.5106 29.7894L29.419 28.8781Z" fill="black"/>
<path d="M18.4132 20.8423C17.9823 21.077 17.6042 20.8423 17.6042 21.7833V24.0782L18.4132 24.8872L19.2222 24.0782V21.9154C19.0724 21.376 18.8845 21.1489 18.4132 20.8423Z" fill="#C43B55"/>
<path d="M20.4356 20.4379L20.0311 21.0321V24.4828L20.4246 24.8873H20.8401L21.6491 24.0783L21.6107 21.1726C21.679 21.0117 21.4782 20.5272 21.2446 20.4379C20.9714 20.1214 20.7851 20.1924 20.4356 20.4379Z" fill="#C43B55"/>
<path d="M23.2672 18.4155L22.4929 19.0077L22.4581 24.0784L23.2672 24.8873L24.0761 24.0784L24.0762 19.0077L23.6717 18.8199L23.2672 18.4155Z" fill="#C43B55"/>
<path fill-rule="evenodd" clip-rule="evenodd" d="M23.6872 15.9939C23.7454 16.0077 23.7946 16.0468 23.8213 16.1005L24.0547 16.5688C24.1046 16.6688 24.0641 16.7904 23.9645 16.8404C23.8649 16.8904 23.7439 16.85 23.6939 16.7503C23.2197 18.1725 22.2295 19.1408 21.1586 19.7752C19.9668 20.4812 18.6637 20.7814 17.8205 20.8419C17.7093 20.8498 17.6127 20.7659 17.6048 20.6543C17.5968 20.5428 17.6805 20.4459 17.7917 20.4379C18.5822 20.3813 19.823 20.0961 20.9534 19.4265C21.9382 18.8431 22.8305 17.9738 23.2788 16.7153C23.1911 16.7689 23.0755 16.7479 23.0126 16.6637C22.9457 16.5743 22.9638 16.4473 23.0529 16.3803L23.5197 16.029C23.5676 15.993 23.6289 15.9801 23.6872 15.9939Z" fill="black"/>
<path fill-rule="evenodd" clip-rule="evenodd" d="M22.4581 19.0606C22.4581 18.7043 22.7333 18.4155 23.0727 18.4155H23.4615C23.8009 18.4155 24.0761 18.7043 24.0761 19.0606V21.5402C24.0761 21.6373 24.001 21.7161 23.9085 21.7161C23.8159 21.7161 23.7409 21.6373 23.7409 21.5402V19.0606C23.7409 18.8986 23.6158 18.7674 23.4615 18.7674H23.0727C22.9184 18.7674 22.7933 18.8986 22.7933 19.0606V24.2423C22.7933 24.4042 22.9184 24.5355 23.0727 24.5355H23.4615C23.6158 24.5355 23.7409 24.4042 23.7409 24.2423V22.1522C23.7409 22.055 23.8159 21.9762 23.9085 21.9762C24.001 21.9762 24.0761 22.055 24.0761 22.1522V24.2423C24.0761 24.5986 23.8009 24.8873 23.4615 24.8873H23.0727C22.7333 24.8873 22.4581 24.5986 22.4581 24.2423V19.0606Z" fill="black"/>
<path fill-rule="evenodd" clip-rule="evenodd" d="M20.0311 20.7088C20.0311 20.3358 20.3063 20.0334 20.6457 20.0334H21.0345C21.3739 20.0334 21.6491 20.3358 21.6491 20.7088V24.2119C21.6491 24.5849 21.3739 24.8873 21.0345 24.8873H20.5572C20.2667 24.8873 20.0311 24.6284 20.0311 24.3091C20.0311 24.2074 20.1062 24.1249 20.1987 24.1249C20.2913 24.1249 20.3663 24.2074 20.3663 24.3091C20.3663 24.425 20.4518 24.5189 20.5572 24.5189H21.0345C21.1888 24.5189 21.3139 24.3815 21.3139 24.2119V20.7088C21.3139 20.5393 21.1888 20.4018 21.0345 20.4018H20.6457C20.4914 20.4018 20.3663 20.5393 20.3663 20.7088V23.9151C20.3663 24.0169 20.2913 24.0993 20.1987 24.0993C20.1062 24.0993 20.0311 24.0169 20.0311 23.9151V20.7088Z" fill="black"/>
<path fill-rule="evenodd" clip-rule="evenodd" d="M17.6042 21.4847C17.6042 21.1299 17.8685 20.8423 18.1946 20.8423H18.6077C18.9471 20.8423 19.2222 21.1417 19.2222 21.511V24.2184C19.2222 24.5878 18.9471 24.8872 18.6077 24.8872H18.2188C17.8794 24.8872 17.6042 24.5878 17.6042 24.2184V21.9447C17.6042 21.844 17.6793 21.7623 17.7718 21.7623C17.8644 21.7623 17.9394 21.844 17.9394 21.9447V24.2184C17.9394 24.3863 18.0645 24.5224 18.2188 24.5224H18.6077C18.7619 24.5224 18.887 24.3863 18.887 24.2184V21.511C18.887 21.3431 18.7619 21.2071 18.6077 21.2071H18.1946C18.0537 21.2071 17.9394 21.3314 17.9394 21.4847C17.9394 21.5854 17.8644 21.6671 17.7718 21.6671C17.6793 21.6671 17.6042 21.5854 17.6042 21.4847Z" fill="black"/>
</g>
<defs>
<clipPath id="clip0">
<rect width="48" height="48" fill="white"/>
</clipPath>
</defs>
</svg>

<svg width="48" height="48" fill="none" xmlns="http://www.w3.org/2000/svg"><g clip-path="url(#clip0)"><path d="M28.864 30.585l-1.417-1.417 1.434-1.718 1.134 1.134 1.14-.006 7.083 7.37-2.865 2.865-7.083-7.37.574-.858z" fill="#C43B55"/><path fill-rule="evenodd" clip-rule="evenodd" d="M20.721 12.935c-4.294.042-7.799 3.568-7.829 7.875a7.632 7.632 0 007.72 7.723c4.295-.042 7.8-3.567 7.83-7.875a7.679 7.679 0 00-1.149-4.117.517.517 0 01.167-.706.505.505 0 01.701.156 8.69 8.69 0 011.3 4.658c-.034 4.872-3.998 8.86-8.855 8.907a8.632 8.632 0 01-8.733-8.736c.034-4.872 3.998-8.86 8.855-8.908a8.62 8.62 0 014.905 1.458.509.509 0 01.132.709.513.513 0 01-.709.144 7.615 7.615 0 00-4.335-1.288z" fill="#000"/><path fill-rule="evenodd" clip-rule="evenodd" d="M20.598 30.58c5.42-.053 9.844-4.504 9.882-9.94.038-5.438-4.325-9.803-9.745-9.75-5.42.053-9.845 4.503-9.883 9.94a9.694 9.694 0 001.45 5.197.517.517 0 01-.167.706.505.505 0 01-.701-.155 10.706 10.706 0 01-1.601-5.738c.041-6.002 4.925-10.914 10.909-10.973 5.983-.058 10.8 4.76 10.758 10.762-.042 6.002-4.926 10.915-10.91 10.973a10.617 10.617 0 01-6.041-1.795.509.509 0 01-.132-.709.513.513 0 01.708-.145 9.613 9.613 0 005.473 1.626z" fill="#000"/><path fill-rule="evenodd" clip-rule="evenodd" d="M28.81 26.809l1.515 1.52.379-.059a1.757 1.757 0 011.51.494l5.898 5.917c.394.395.576.956.492 1.515l-.031.21a1.828 1.828 0 01-.514 1.018l-1.03 1.033a1.818 1.818 0 01-1.013.514l-.21.032a1.757 1.757 0 01-1.51-.493l-5.899-5.917a1.769 1.769 0 01-.492-1.515l.057-.38-1.514-1.519 2.362-2.37zm.173 3.94l-.07.465a.76.76 0 00.211.65l5.899 5.916a.75.75 0 00.647.212l.21-.032a.78.78 0 00.435-.22l1.03-1.034a.783.783 0 00.22-.435l.031-.212a.758.758 0 00-.21-.649l-5.899-5.917a.753.753 0 00-.647-.211l-.464.07-1.393 1.398zm.436-1.87l-.62-.623-.91.911.622.622.908-.91z" fill="#000"/><path d="M18.413 20.842c-.43.235-.809 0-.809.941v2.295l.81.81.808-.81v-2.163c-.15-.539-.338-.766-.809-1.073zm2.023-.404l-.405.594v3.45l.394.405h.415l.81-.809-.04-2.905c.069-.161-.132-.646-.365-.735-.274-.317-.46-.246-.81 0zm2.831-2.022l-.774.592-.035 5.07.81.81.808-.81v-5.07l-.404-.188-.405-.404z" fill="#C43B55"/><path fill-rule="evenodd" clip-rule="evenodd" d="M23.687 15.994a.202.202 0 01.134.107l.234.468a.202.202 0 11-.36.181c-.475 1.422-1.465 2.39-2.536 3.025-1.192.706-2.495 1.006-3.338 1.067a.202.202 0 01-.03-.404c.791-.057 2.032-.342 3.162-1.011.985-.584 1.878-1.453 2.326-2.712a.201.201 0 01-.266-.051.203.203 0 01.04-.284l.467-.351a.201.201 0 01.167-.035z" fill="#000"/><path fill-rule="evenodd" clip-rule="evenodd" d="M22.458 19.06c0-.356.275-.644.615-.644h.389c.339 0 .614.288.614.645v2.48a.172.172 0 01-.168.175.172.172 0 01-.167-.176v-2.48a.287.287 0 00-.28-.293h-.388a.287.287 0 00-.28.294v5.181c0 .162.125.293.28.293h.389c.154 0 .279-.13.279-.293v-2.09c0-.097.075-.176.168-.176.092 0 .167.079.167.176v2.09c0 .357-.275.645-.614.645h-.39c-.339 0-.614-.288-.614-.645v-5.181zm-2.427 1.649c0-.373.275-.676.615-.676h.389c.339 0 .614.303.614.676v3.503c0 .373-.275.675-.614.675h-.478c-.29 0-.526-.259-.526-.578 0-.102.075-.184.168-.184.092 0 .167.082.167.184 0 .116.086.21.191.21h.478c.154 0 .279-.137.279-.307v-3.503c0-.17-.125-.307-.28-.307h-.388c-.155 0-.28.137-.28.307v3.206c0 .102-.075.184-.167.184-.093 0-.168-.082-.168-.184V20.71zm-2.427.776c0-.355.265-.643.59-.643h.414c.34 0 .614.3.614.669v2.707c0 .37-.275.67-.614.67h-.39c-.339 0-.614-.3-.614-.67v-2.273c0-.101.075-.183.168-.183.092 0 .167.082.167.183v2.273c0 .168.125.304.28.304h.389c.154 0 .279-.136.279-.304v-2.707c0-.168-.125-.304-.28-.304h-.412c-.141 0-.256.124-.256.278 0 .1-.075.182-.167.182-.093 0-.168-.082-.168-.182z" fill="#000"/></g><defs><clipPath id="clip0"><path fill="#fff" d="M0 0h48v48H0z"/></clipPath></defs></svg>
